src/16/panel/qelectrotech-indicator.svg

<svg xmlns="http://www.w3.org/2000/svg" width="16" height="16" version="1.1">
 <defs>
  <style id="current-color-scheme" type="text/css">
   .ColorScheme-Text { color:#dfdfdf; } .ColorScheme-Highlight { color:#5294e2; }
  </style>
 </defs>
 <path style="fill:currentColor" class="ColorScheme-Text" d="M 7.5 1 A 5.5 6.5 0 0 0 2 7.5 A 5.5 6.5 0 0 0 7.5 14 A 5.5 6.5 0 0 0 9.6875 13.460938 L 8.3964844 11.847656 A 3.5 4.5 0 0 1 7.5 12 A 3.5 4.5 0 0 1 4 7.5 A 3.5 4.5 0 0 1 7.5 3 A 3.5 4.5 0 0 1 10.466797 5.1152344 A 1.0001 1.0001 0 0 1 10.705078 5.2890625 L 12.998047 7.5625 A 5.5 6.5 0 0 0 13 7.5 A 5.5 6.5 0 0 0 7.5 1 z M 10 6 L 11.5 9.5 L 9 11 L 13 16 L 11.5 12 L 14 9.9667969 L 10 6 z"/>
</svg>

<svg xmlns="http://www.w3.org/2000/svg" width="16" height="16"><defs><style id="current-color-scheme" type="text/css"></style></defs><path d="M7.5 1A5.5 6.5 0 0 0 2 7.5 5.5 6.5 0 0 0 7.5 14a5.5 6.5 0 0 0 2.188-.54l-1.292-1.612A3.5 4.5 0 0 1 7.5 12 3.5 4.5 0 0 1 4 7.5 3.5 4.5 0 0 1 7.5 3a3.5 4.5 0 0 1 2.967 2.115 1 1 0 0 1 .238.174l2.293 2.274A5.5 6.5 0 0 0 13 7.5 5.5 6.5 0 0 0 7.5 1zM10 6l1.5 3.5L9 11l4 5-1.5-4L14 9.967 10 6z" fill="currentColor" color="#dfdfdf"/></svg>
